assets/2023/icons/yarn.svg

<!-- Copyright 2000-2022 JetBrains s.r.o. and contributors. Use of this source code is governed by the Apache 2.0 license. -->
<svg width="16" height="16" viewBox="0 0 16 16" fill="none" xmlns="http://www.w3.org/2000/svg">
<path d="M14.1031 12.2043C13.3868 12.3661 12.7124 12.6765 12.1236 13.1153C11.2152 13.6855 10.2337 14.1298 9.20598 14.4364C9.07997 14.5835 8.90575 14.681 8.71446 14.7114C7.64566 14.8634 6.56967 14.9597 5.49086 14.9999C4.90934 15.0044 4.55283 14.8499 4.45383 14.6119C4.41305 14.5155 4.39192 14.4119 4.39167 14.3073C4.39143 14.2026 4.41207 14.099 4.4524 14.0024C4.49273 13.9058 4.55192 13.8182 4.62652 13.7448C4.70113 13.6714 4.78963 13.6136 4.88684 13.5749C4.79595 13.5191 4.70997 13.4557 4.62984 13.3854C4.54433 13.2999 4.45383 13.1283 4.42683 13.1913C4.31433 13.4664 4.25532 14.1384 3.95331 14.4414C3.5383 14.8609 2.75328 14.7209 2.28926 14.4774C1.77975 14.2069 2.32526 13.5709 2.32526 13.5709C2.28159 13.593 2.2339 13.6061 2.18505 13.6095C2.13619 13.6128 2.08717 13.6063 2.04089 13.5903C1.9946 13.5743 1.95202 13.5491 1.91566 13.5163C1.8793 13.4835 1.84991 13.4437 1.82925 13.3994C1.5637 12.956 1.44684 12.4393 1.49574 11.9248C1.62385 11.3607 1.93055 10.8531 2.37026 10.4773C2.301 9.72811 2.41388 8.97331 2.69927 8.27719C3.07621 7.55153 3.61828 6.92451 4.28182 6.44663C4.28182 6.44663 3.31279 5.3731 3.6738 4.40807C3.90831 3.77705 4.00282 3.78155 4.07982 3.75405C4.35208 3.67012 4.60079 3.52333 4.80584 3.32554C5.08172 3.02181 5.42478 2.78677 5.80763 2.63919C6.19049 2.4916 6.60254 2.43555 7.01091 2.47551C7.01091 2.47551 7.59893 0.699453 8.13745 1.04446C8.43536 1.50172 8.69189 1.98465 8.90397 2.48751C8.90397 2.48751 9.54449 2.1135 9.61649 2.253C9.98478 3.23135 10.0753 4.29251 9.878 5.3191C9.64524 6.3043 9.20171 7.22735 8.57796 8.02468C8.51046 8.13719 9.35349 8.4937 9.8855 9.96825C10.377 11.3183 9.9395 12.4483 10.0165 12.5743C10.03 12.5968 10.0345 12.6058 10.0345 12.6058C10.0345 12.6058 10.598 12.6508 11.7301 11.9518C12.3564 11.4943 13.0959 11.217 13.8686 11.1498C14.0072 11.1221 14.1511 11.1498 14.2696 11.227C14.388 11.3041 14.4715 11.4246 14.5021 11.5626C14.5328 11.7005 14.5082 11.845 14.4336 11.9651C14.359 12.0851 14.2404 12.1712 14.1031 12.2048V12.2043Z" fill="#498DB7"/>
</svg>

<svg xmlns="http://www.w3.org/2000/svg" width="16" height="16" fill="none" viewBox="0 0 16 16"><path fill="#498DB7" d="M14.103 12.204a5.25 5.25 0 0 0-1.98.911c-.908.57-1.89 1.015-2.917 1.321a.82.82 0 0 1-.492.275A31 31 0 0 1 5.491 15c-.582.004-.938-.15-1.037-.388a.787.787 0 0 1 .433-1.037 2 2 0 0 1-.257-.19c-.086-.085-.176-.257-.203-.194-.113.275-.172.947-.474 1.25-.415.42-1.2.28-1.664.036-.51-.27.036-.906.036-.906a.367.367 0 0 1-.496-.172 2.42 2.42 0 0 1-.333-1.474 2.7 2.7 0 0 1 .874-1.448 4.66 4.66 0 0 1 .33-2.2 5.2 5.2 0 0 1 1.582-1.83s-.97-1.074-.608-2.039c.234-.631.329-.626.406-.654.272-.084.52-.23.726-.428a2.63 2.63 0 0 1 2.205-.85S7.599.699 8.137 1.044q.448.687.767 1.444s.64-.374.712-.235c.369.978.46 2.04.262 3.066a7 7 0 0 1-1.3 2.706c-.068.112.775.469 1.308 1.943.491 1.35.054 2.48.13 2.606l.018.032s.564.045 1.696-.654a4.25 4.25 0 0 1 2.139-.802.54.54 0 0 1 .234 1.055"/></svg>
